dist/svg/static/cubic-capacity-small.svg

<svg xmlns="http://www.w3.org/2000/svg" width="24" height="24" viewBox="0 0 24 24"><g fill="none" stroke="currentColor" stroke-miterlimit="10"><path d="M10.5 20c0 1.38-1.11 2.5-2.477 2.5C6.654 22.5 5.5 21.38 5.5 20s1.154-2.5 2.523-2.5c1.368 0 2.477 1.12 2.477 2.5zM9.035 17.723l2.374-5.223"/><g><path d="M6.5 5.5h11M17.5 12.5h-11v-9a2 2 0 0 1 2-2h7a2 2 0 0 1 2 2v9z"/></g></g></svg>

<?xml version="1.0" encoding="UTF-8" standalone="no"?>
<svg width="24px" height="24px" viewBox="0 0 24 24" version="1.1" xmlns="http://www.w3.org/2000/svg" xmlns:xlink="http://www.w3.org/1999/xlink">
    <!-- Generator: sketchtool 46.2 (44496) - http://www.bohemiancoding.com/sketch -->
    <title>cubic-capacity-small</title>
    <desc>Created with sketchtool.</desc>
    <defs></defs>
    <g id="icons-published" stroke="none" stroke-width="1" fill="none" fill-rule="evenodd">
        <g id="briefing" transform="translate(-1220.000000, -410.000000)"></g>
        <g id="cubic-capacity-small" stroke="#000000">
            <path d="M10.5,20 C10.5,21.4 9.4,22.5 8,22.5 C6.6,22.5 5.5,21.4 5.5,20 C5.5,18.6 6.7,17.5 8,17.5 C9.4,17.5 10.5,18.6 10.5,20 Z M9,17.7 L11.4,12.5 L9,17.7 Z" id="Shape"></path>
            <path d="M6.5,5.5 L17.5,5.5 L6.5,5.5 Z M17.5,12.5 L6.5,12.5 L6.5,3.5 C6.5,2.4 7.4,1.5 8.5,1.5 L15.5,1.5 C16.6,1.5 17.5,2.4 17.5,3.5 L17.5,12.5 Z" id="Shape"></path>
        </g>
    </g>
</svg>
